X: 20835
T: Johnny's Wedding
R: reel
M: 4/4
K: Gdorian
F|GEBE GEEG|FDAD FDDF|GEBE GEEB|AGFG E3F|
GEBE GEEB|ABAG FDDF|~G3F GBdB|AGFG E3:|
|:F|~G3F GBdB|ABAG FDDF|Eeed efge|fedf e3d|
efed BcdB|ABAG FDDF|~G3F GBdB|AGFG E3:|
A|BGdG BGGB|AFcF AFFA|BGdG BGGB|AGFA ~G3A|
BGdG BGGB|AFcF AFFA|GBAc Bdc_e|dg^fa ~g3:|
|:a|bgag fdde|fdcB AFFa|bgag fdd^c|dg^fa ~g3a|
bgag fdde|fdcB AFFA|GBAc Bdc_e|dg^fa ~g3:|

